assets/img/eye_on.svg

<svg width="24" height="24" xmlns="http://www.w3.org/2000/svg">

 <g>
  <title>background</title>
  <rect fill="none" id="canvas_background" height="402" width="582" y="-1" x="-1"/>
 </g>
 <g>
  <title>Layer 1</title>
  <path id="svg_1" fill="#ffffff" d="m6.30147,15.5771c-1.52315,-1.3087 -2.61107,-2.8045 -3.12145,-3.5771c0.51038,-0.7726 1.5983,-2.26842 3.12145,-3.57706c1.57255,-1.35109 3.51427,-2.42294 5.69853,-2.42294c2.1843,0 4.1261,1.07185 5.6986,2.42294c1.5232,1.30864 2.6111,2.80446 3.1215,3.57706c-0.5104,0.7726 -1.5983,2.2684 -3.1215,3.5771c-1.5725,1.3511 -3.5143,2.4229 -5.6986,2.4229c-2.18426,0 -4.12598,-1.0718 -5.69853,-2.4229zm5.69853,-11.5771c-2.85246,0 -5.24283,1.39462 -7.00188,2.90595c-1.76544,1.51681 -2.99055,3.23165 -3.53425,4.06385c-0.41081,0.6287 -0.41081,1.4317 0,2.0604c0.5437,0.8322 1.76881,2.547 3.53425,4.0639c1.75905,1.5113 4.14942,2.9059 7.00188,2.9059c2.8525,0 5.2429,-1.3946 7.002,-2.9059c1.7654,-1.5169 2.9905,-3.2317 3.5342,-4.0639c0.4108,-0.6287 0.4108,-1.4317 0,-2.0604c-0.5437,-0.8322 -1.7688,-2.54704 -3.5342,-4.06385c-1.7591,-1.51133 -4.1495,-2.90595 -7.002,-2.90595zm-2,8c0,-1.1046 0.8955,-2 2,-2c1.1046,0 2,0.8954 2,2c0,1.1046 -0.8954,2 -2,2c-1.1045,0 -2,-0.8954 -2,-2zm2,-4c-2.2091,0 -3.99996,1.79086 -3.99996,4c0,2.2091 1.79086,4 3.99996,4c2.2092,0 4,-1.7909 4,-4c0,-2.20914 -1.7908,-4 -4,-4z" clip-rule="evenodd" fill-rule="evenodd"/>
 </g>
</svg>

<?xml version="1.0" encoding="utf-8"?><!-- Uploaded to: SVG Repo, www.svgrepo.com, Generator: SVG Repo Mixer Tools -->
<svg width="800px" height="800px" viewBox="0 0 24 24" fill="none" xmlns="http://www.w3.org/2000/svg">
<path fill-rule="evenodd" clip-rule="evenodd" d="M6.30147 15.5771C4.77832 14.2684 3.6904 12.7726 3.18002 12C3.6904 11.2274 4.77832 9.73158 6.30147 8.42294C7.87402 7.07185 9.81574 6 12 6C14.1843 6 16.1261 7.07185 17.6986 8.42294C19.2218 9.73158 20.3097 11.2274 20.8201 12C20.3097 12.7726 19.2218 14.2684 17.6986 15.5771C16.1261 16.9282 14.1843 18 12 18C9.81574 18 7.87402 16.9282 6.30147 15.5771ZM12 4C9.14754 4 6.75717 5.39462 4.99812 6.90595C3.23268 8.42276 2.00757 10.1376 1.46387 10.9698C1.05306 11.5985 1.05306 12.4015 1.46387 13.0302C2.00757 13.8624 3.23268 15.5772 4.99812 17.0941C6.75717 18.6054 9.14754 20 12 20C14.8525 20 17.2429 18.6054 19.002 17.0941C20.7674 15.5772 21.9925 13.8624 22.5362 13.0302C22.947 12.4015 22.947 11.5985 22.5362 10.9698C21.9925 10.1376 20.7674 8.42276 19.002 6.90595C17.2429 5.39462 14.8525 4 12 4ZM10 12C10 10.8954 10.8955 10 12 10C13.1046 10 14 10.8954 14 12C14 13.1046 13.1046 14 12 14C10.8955 14 10 13.1046 10 12ZM12 8C9.7909 8 8.00004 9.79086 8.00004 12C8.00004 14.2091 9.7909 16 12 16C14.2092 16 16 14.2091 16 12C16 9.79086 14.2092 8 12 8Z" fill="#000000"/>
</svg>
